X:1
T:Fukuoka, SMD
T:Fukuoka, SMD
T:N. Keff Smith, 1902
T:Public Domain Courtesy of the Cyber Hymnal™
C:N. Keff Smith, 1902
Z:Public Domain
Z:Courtesy of the Cyber Hymnal™
%%score ( 1 2 ) ( 3 4 )
L:1/8
Q:1/4=107
M:4/4
K:F
V:1 treble 
V:2 treble 
V:3 bass 
V:4 bass 
V:1
 F2 | [FA]3 [CF] D2 [CE]2 | F6 [FA]2 | ([Ac][^G=B]) ([Ac][_Bd]) [Ac]2 [FA]2 | [EG]6 [FA]2 | %5
 [FB]3 [FB] F2 [FG]2 | [FA]3 [FA] [Ac]2 [FA]2 | [EG]3 [DF] ([CE][DF]) [=B,D]2 | C6 B2 | %9
 z2 [FA][FA] [EG][EA] x2 | (z C2) (A B) x6 | [Fc]3 [Fc] [FA]2 F2 | [EG]6 [FA]2 | %13
 [FB]3 [FB] [FA]2 [FA]2 | [Fd]2 [Fd]2 !fermata![Fd]2 [Fd]2 | [Fc]3 [FA] (cB) ([EA][CG]) | [CF]6 |] %17
V:2
 F2 | x4 D2 x2 | (C2 D2 C2) x2 | x8 | x8 | x4 F2 x2 | x8 | x8 | C6 x2 | A4- F2 x2 | (F6 CCC C2) | %11
 x6 F2 | x8 | x8 | x8 | x4 E2 x2 | x6 |] %17
V:3
 [F,A,]2 | [F,C]3 [A,,C] [B,,F,]2 [C,B,]2 | (A,2 B,2 A,2) [F,C]2 | [F,F]2 [F,F]2 [F,F]2 [F,C]2 | %4
 [C,C]6 [F,C]2 | [B,,D]3 [B,,D] [B,,D]2 [B,,D]2 | [F,C]3 [F,C] [F,C]2 [F,C]2 | %7
 [G,C]3 G, [G,,G,]2 [G,,F,]2 | [C,E,]6 z2 | z2 [F,C]2 [F,C][F,C][C,B,][C,C] | %10
 (A,A,B,B, A,2) (F,G,) x3 | [F,A,]3 [F,A,] [F,C]2 [D,=B,]2 | [C,C]6 [F,C]2 | %13
 [F,D]3 [F,D] [F,C]2 [F,C]2 | [B,,B,]2 [B,,B,]2 !fermata![B,,B,]2 [B,,B,]2 | %15
 [C,A,]3 [C,C] [C,C]2 (CB,) | [F,A,]6 |] %17
V:4
 x2 | x8 | F,6 x2 | x8 | x8 | x8 | x8 | x3 G, x4 | x8 | x8 | F,6 F,2 x3 | x8 | x8 | x8 | x8 | %15
 x6 C,2 | x6 |] %17

